X: 14
T:Princess Royal, Sherborne 1
M:4/4
L:1/8
Q:1/4=120
A:Sherborne
P:A.AB(CB3)3
K:G
P:A
dc|BcAB G2d2|BcAB G2c2|e2ed c2e2|d2d2 B2d2|
c2B2 A2G2|FGAF D2c2|B2AG F2d2|G4   G2 ||
P:B
d2|e2dd e2f2|g2G2 G4  |g2gf e2d2|BcBG E2EF|
G2A2 B4  |c2d2 g4  |f2d2 e4  |d2B2 c3e |\
d2d2 c2A2|FGFE D2c2|B2AG A2d2|G4   G2 ||
P:C
M:2/4
L:1/8
d3c|\
M:2/2
B4   A3B |G4   d3c |B4   A3B |G4   c3d |
e4   e3d |c4   e4  |d4   d3c |B6   d2  |\
c2B2 A2G2|FGAF D2c2|B2AG F2d2|G4   G2 ||
